src/components/icons/PeaceOutline.svg

<svg width="32" height="32" viewBox="0 0 32 32" fill="none" xmlns="http://www.w3.org/2000/svg">
<g clip-path="url(#clip0)">
<path d="M5.34934 21.84C4.96934 21.504 4.67201 21.0814 4.50401 20.5867L2.82667 15.6494C2.30268 14.108 3.12667 12.4254 4.66267 11.8987C5.30134 11.68 5.97734 11.7 6.60401 11.9254C6.58001 11.7587 6.56267 11.5947 6.56267 11.4347C6.56267 9.88669 7.54001 8.51602 8.98934 8.02402C9.63467 7.80135 10.3133 7.77602 10.9627 7.92669L10.1827 5.63069C10.0373 5.19069 9.96267 4.73069 9.96267 4.26002C9.96267 2.44269 11.1147 0.820019 12.8373 0.221352C15.0467 -0.526648 17.468 0.665352 18.232 2.88269L19.7107 7.24535L21.028 3.00269C21.7267 0.725353 24.2213 -0.518648 26.352 0.192019C28.5813 0.904019 29.8347 3.30135 29.144 5.53735L26.7987 13.044H27.0333C27.5853 13.044 28.0333 13.492 28.0333 14.044V20.5654C28.0333 26.8707 22.9267 31.9987 16.6493 31.9987C10.856 31.9987 5.98934 27.572 5.34934 21.84ZM5.31067 13.7907C4.81467 13.96 4.55067 14.5067 4.72001 15.0067L6.39867 19.9454C6.56667 20.4387 7.09601 20.7107 7.59867 20.54C8.09467 20.3707 8.36001 19.824 8.18934 19.324L6.51201 14.3867C6.34134 13.8854 5.80401 13.6214 5.31067 13.7907ZM9.63601 9.91735C8.87201 10.176 8.35467 11.0214 8.65201 11.9587L11.1733 19.3627C11.4533 20.208 12.3613 20.6494 13.176 20.3654C13.6907 20.1854 14.064 19.7707 14.204 19.2774C14.1773 19.252 14.1453 19.2334 14.12 19.2067C13.4307 18.5347 13.052 17.6267 13.052 16.652C13.052 16.2654 13.1293 15.9 13.2413 15.5507C11.572 11.0587 11.828 10.4667 10.864 9.99069C10.4827 9.80269 10.0467 9.77602 9.63601 9.91735ZM27.2333 4.94402C27.6013 3.75469 26.932 2.47735 25.7293 2.09335C24.6627 1.73602 23.316 2.36002 22.9387 3.59335L20.7067 10.78C20.4133 11.7134 19.092 11.6507 18.804 10.804L16.34 3.53069C15.9347 2.35602 14.652 1.71869 13.4853 2.11469C12.296 2.52802 11.6907 3.82669 12.0787 4.99469C12.1973 5.34535 14.0387 10.7627 13.9267 10.4347L14.9627 13.484C15.468 13.212 16.036 13.0427 16.6493 13.0427H24.712L27.2333 4.94402ZM16.6493 29.9987C21.824 29.9987 26.0333 25.7667 26.0333 20.5654V15.044H16.6493C15.7693 15.044 15.0533 15.7654 15.0533 16.6534C15.0533 17.0854 15.2187 17.484 15.5387 17.796C15.828 18.096 16.224 18.2614 16.6493 18.2614C17.6093 18.2614 21.3907 18.2614 21.192 18.2614C21.744 18.2614 22.192 18.7094 22.192 19.2614C22.192 19.8134 21.744 20.2614 21.192 20.2614H20.8813C17.8467 20.2614 18.3413 23.6934 18.2973 23.8267C18.2973 24.3787 17.8493 24.8267 17.2973 24.8267C16.7453 24.8267 16.2973 24.3787 16.2973 23.8267C16.3533 23.3 16.0227 21.84 17.1053 20.2614C16.7507 20.2507 16.5147 20.292 15.9973 20.1974C15.612 21.1347 14.8427 21.9 13.8347 22.2547C12.4293 22.7427 10.8427 22.3294 9.85867 21.064C9.51734 21.6827 8.96401 22.1867 8.24534 22.432C7.99734 22.5174 7.74401 22.5587 7.48934 22.576C8.41734 26.8294 12.2013 29.9987 16.6493 29.9987Z" fill="white"/>
</g>
<defs>
<clipPath id="clip0">
<rect width="32" height="32" transform="matrix(-1 0 0 1 32 0)" fill="white"/>
</clipPath>
</defs>
</svg>

<svg width="32" height="32" fill="none" xmlns="http://www.w3.org/2000/svg"><g clip-path="url(#clip0)"><path d="M5.35 21.84a2.93 2.93 0 01-.846-1.253l-1.677-4.938a2.962 2.962 0 011.836-3.75 2.912 2.912 0 011.941.026 3.465 3.465 0 01-.041-.49c0-1.548.977-2.919 2.426-3.411a3.558 3.558 0 011.974-.097l-.78-2.296c-.146-.44-.22-.9-.22-1.371A4.278 4.278 0 0112.837.221c2.21-.748 4.631.444 5.395 2.662l1.479 4.362 1.317-4.242C21.727.725 24.221-.52 26.352.192a4.298 4.298 0 012.792 5.345l-2.345 7.507h.234a1 1 0 011 1v6.521C28.033 26.871 22.927 32 16.65 32c-5.793 0-10.66-4.427-11.3-10.159zm-.04-8.05a.96.96 0 00-.59 1.217l1.679 4.938a.943.943 0 001.2.595.958.958 0 00.59-1.216l-1.677-4.937a.945.945 0 00-1.201-.596zm4.326-3.873c-.764.259-1.281 1.104-.984 2.042l2.521 7.404a1.573 1.573 0 002.003 1.002c.515-.18.888-.594 1.028-1.088-.027-.025-.059-.044-.084-.07a3.536 3.536 0 01-1.068-2.555c0-.387.077-.752.19-1.101-1.67-4.492-1.414-5.084-2.378-5.56a1.588 1.588 0 00-1.228-.074zm17.597-4.973a2.293 2.293 0 00-1.504-2.85c-1.066-.358-2.413.266-2.79 1.5l-2.232 7.186c-.294.933-1.615.87-1.903.024L16.34 3.531c-.405-1.175-1.688-1.812-2.855-1.416-1.189.413-1.794 1.712-1.406 2.88l1.848 5.44 1.036 3.049a3.541 3.541 0 011.686-.441h8.063l2.521-8.099zM16.65 29.999c5.175 0 9.384-4.232 9.384-9.434v-5.521H16.65a1.604 1.604 0 00-1.11 2.752c.289.3.685.465 1.11.465h4.543a1 1 0 010 2h-.31c-3.035 0-2.54 3.432-2.585 3.566a1 1 0 01-2 0c.056-.527-.274-1.987.808-3.566-.354-.01-.59.031-1.108-.064a3.648 3.648 0 01-2.162 2.058 3.526 3.526 0 01-3.976-1.191 2.919 2.919 0 01-1.614 1.368 2.91 2.91 0 01-.756.144c.928 4.253 4.712 7.423 9.16 7.423z" fill="#fff"/></g><defs><clipPath id="clip0"><path transform="matrix(-1 0 0 1 32 0)" fill="#fff" d="M0 0h32v32H0z"/></clipPath></defs></svg>
